packages/foundations/assets/icons/functional/images/transportation/train_28.svg

<svg width="28" height="28" viewBox="0 0 28 28" fill="none" xmlns="http://www.w3.org/2000/svg">
<g clip-path="url(#clip0_187_958)">
<path fill-rule="evenodd" clip-rule="evenodd" d="M15.3006 1.75C18.0002 1.75 19.5633 2.69011 20.7712 4.2875C21.8913 5.76875 22.5456 7.54214 22.6565 9.38564L22.7425 12.5697C22.7927 14.5622 22.5938 16.5525 22.1509 18.4952L21.4922 21.1236C21.2906 21.7825 21.1265 22.2453 21.0001 22.512C20.8104 22.912 20.2316 23.7563 20.02 24.0078C19.8083 24.2593 19.2063 24.8753 18.3478 25.1611C18.3658 25.2289 18.3751 25.3008 18.3751 25.375C18.3751 25.8237 18.0184 26.25 17.5001 26.25H10.5001C10.0168 26.25 9.62506 25.8582 9.62506 25.375C9.62506 25.2957 9.6356 25.2189 9.65535 25.1459C8.95569 24.8974 8.33582 24.449 7.87957 23.847C7.42331 23.245 7.24622 22.9691 7.00698 22.512C6.84748 22.2072 6.66717 21.6923 6.46603 20.9673L5.97701 19.0433C5.48958 17.1206 5.24558 15.1458 5.25006 13.1647L5.33068 9.71174C5.3799 7.75185 6.04364 5.85589 7.2296 4.2875C8.39435 2.74716 10.0268 1.75 12.7568 1.75C13.4523 1.75 14.3002 1.75 15.3006 1.75ZM8.17864 20.5989C8.25469 20.9696 8.37264 21.3087 8.53249 21.6163C8.69235 21.9238 8.91715 22.2836 9.20689 22.6957C9.56747 23.2307 10.2857 23.625 10.8285 23.6188L17.0848 23.625C17.7281 23.625 18.3943 23.3424 18.8039 22.71C19.2134 22.0776 19.4263 21.7541 19.5871 21.3605C19.6943 21.0981 19.7714 20.8443 19.8184 20.5989C18.63 21.3484 17.9276 21.779 17.7113 21.8909C17.3869 22.0586 17.0359 22.1617 16.542 22.2242C15.6474 22.2823 14.7999 22.3126 13.9997 22.3152C13.1995 22.3177 12.3984 22.2928 11.5963 22.2402C10.9807 22.1749 10.5795 22.0558 10.2007 21.8434C9.82197 21.6311 8.78941 20.9592 8.17864 20.5989ZM12.7568 3.5C10.7545 3.5 9.59071 4.06649 8.62546 5.343C7.7204 6.53991 7.1893 7.97021 7.09347 9.45751L7.00698 12.6682C6.96126 14.4886 7.12652 16.3712 7.58625 18.2507C8.26467 18.6267 8.8522 18.9626 9.34884 19.2585C10.0938 19.7023 10.3695 19.8932 10.8877 20.2013C11.4059 20.5093 12.3953 20.5639 14.0155 20.5639C15.6357 20.5639 16.4817 20.6034 17.1442 20.2013C17.8067 19.7991 18.116 19.5856 18.666 19.2585C19.2428 18.9155 19.8363 18.5705 20.4064 18.2611C20.803 16.7407 21.0009 15.0414 21.0001 13.1632L20.921 9.75575C20.8808 8.16199 20.3408 6.61974 19.3754 5.343C18.4407 4.10694 17.4237 3.50314 15.3006 3.50314L12.7568 3.5ZM11.0199 15.3482L11.843 17.8818C11.9913 18.3417 11.7387 18.8348 11.2787 18.9831C10.8516 19.1208 10.396 18.9128 10.2143 18.5141L9.39129 15.9805C9.243 15.5206 9.49564 15.0275 9.95557 14.8792C10.3827 14.7415 10.8383 14.9495 11.0199 15.3482ZM16.8821 15.3712C17.0638 14.9725 17.5194 14.7645 17.9465 14.9022C18.3736 15.0399 18.6219 15.4749 18.5365 15.9046L17.6951 18.5141C17.5135 18.9128 17.0578 19.1208 16.6308 18.9831C16.2037 18.8454 15.9553 18.4104 16.0408 17.9807L16.8821 15.3712ZM14.0001 5.25C15.842 5.25 17.2295 5.62862 18.1626 6.38586C19.0958 7.1431 19.2577 7.92283 19.1625 8.75993C19.0892 9.40505 19.0315 9.90853 18.8004 10.886C18.5693 11.8635 17.7236 12.6343 16.7097 12.8105C15.8067 13.0202 14.9034 13.125 14.0001 13.125C12.645 13.125 12.3655 13.0227 11.2899 12.8104C10.2143 12.5981 9.42446 11.8484 9.184 10.8241C9.00787 10.0102 8.88779 9.32964 8.82377 8.7823C8.72773 7.96129 9.02402 7.14301 9.62343 6.57381C10.5528 5.69127 12.0117 5.25 14.0001 5.25ZM14.0001 7C12.4211 7 11.3865 7.31293 10.8285 7.84282C10.6572 8.00545 10.5602 8.22907 10.5547 8.45062C10.5511 8.59831 10.6621 9.25617 10.8877 10.4242C10.9598 10.7315 11.1908 10.9733 11.4837 11.0616C12.5693 11.2676 13.4054 11.372 13.9921 11.375C14.5787 11.378 15.3847 11.2817 16.41 11.0864C16.7104 11.0341 16.9591 10.8302 17.0676 10.5671C17.1762 10.304 17.3561 9.15706 17.4237 8.56231C17.4515 8.31816 17.4412 8.07474 17.0599 7.74473C16.542 7.29639 15.4742 7 14.0001 7Z" fill="#1A1C1F"/>
</g>
<defs>
<clipPath id="clip0_187_958">
<rect width="28" height="28" fill="white"/>
</clipPath>
</defs>
</svg>

<svg xmlns="http://www.w3.org/2000/svg" width="28" height="28" fill="none"><g clip-path="url(#a)"><path fill="#1A1C1F" fill-rule="evenodd" d="M15.3 1.75c2.7 0 4.263.94 5.471 2.537a9.4 9.4 0 0 1 1.886 5.099l.085 3.184a24 24 0 0 1-.591 5.925l-.659 2.629q-.302.988-.492 1.388c-.19.4-.768 1.244-.98 1.496-.212.251-.814.867-1.672 1.153q.027.102.027.214a.874.874 0 0 1-.875.875h-7a.875.875 0 0 1-.845-1.104 3.84 3.84 0 0 1-1.775-1.299c-.457-.602-.634-.878-.873-1.335q-.24-.457-.541-1.545l-.489-1.924a23.7 23.7 0 0 1-.727-5.878l.08-3.453a9.4 9.4 0 0 1 1.9-5.424c1.164-1.54 2.797-2.538 5.527-2.538zM8.18 20.599q.114.556.353 1.017.24.462.675 1.08c.36.535 1.079.929 1.621.923l6.257.006c.643 0 1.31-.283 1.719-.915s.622-.956.783-1.35q.16-.393.231-.761-1.782 1.125-2.107 1.292c-.324.168-.675.27-1.169.333q-1.342.087-2.542.091t-2.404-.075c-.615-.065-1.017-.184-1.395-.397-.379-.212-1.412-.884-2.022-1.244M12.757 3.5c-2.002 0-3.166.566-4.132 1.843a7.64 7.64 0 0 0-1.532 4.115l-.086 3.21a21.2 21.2 0 0 0 .58 5.583q1.017.564 1.762 1.008c.745.443 1.02.634 1.539.942s1.507.363 3.127.363 2.467.04 3.13-.363.971-.615 1.521-.942c.577-.343 1.17-.689 1.74-.998q.595-2.28.594-5.098l-.079-3.407a7.63 7.63 0 0 0-1.546-4.413c-.934-1.236-1.951-1.84-4.074-1.84zM11.02 15.348l.823 2.534a.875.875 0 0 1-1.629.632l-.823-2.533a.875.875 0 0 1 1.629-.633m5.862.023a.875.875 0 0 1 1.654.534l-.84 2.61a.875.875 0 0 1-1.655-.534zM14 5.25q2.763 0 4.163 1.136c.933.757 1.095 1.537 1 2.374a15 15 0 0 1-.363 2.126c-.23.978-1.076 1.748-2.09 1.925q-1.355.315-2.71.314c-1.355 0-1.634-.102-2.71-.315-1.076-.212-1.866-.962-2.106-1.986a22 22 0 0 1-.36-2.042c-.096-.82.2-1.639.8-2.208Q11.017 5.25 14 5.25M14 7c-1.579 0-2.613.313-3.171.843a.88.88 0 0 0-.274.608q-.006.22.333 1.973c.072.308.303.55.596.638q1.627.309 2.508.313.88.005 2.418-.289c.3-.052.55-.256.658-.519s.288-1.41.356-2.005c.027-.244.017-.487-.364-.817C16.542 7.296 15.474 7 14 7" clip-rule="evenodd"/></g><defs><clipPath id="a"><path fill="#fff" d="M0 0h28v28H0z"/></clipPath></defs></svg>
